assets/img/logos/logo-discord.svg

<svg fill="none" height="32" viewBox="0 0 32 32" width="32" xmlns="http://www.w3.org/2000/svg"><path d="m27.0894 5.54081c-2.0396-.93585-4.2268-1.62533-6.5135-2.02023-.0417-.00762-.0833.01142-.1047.04952-.2813.50028-.5929 1.15295-.8111 1.66594-2.4596-.36823-4.9065-.36823-7.3157 0-.2182-.5244-.5411-1.16566-.8236-1.66594-.0215-.03683-.0631-.05587-.1047-.04952-2.28555.39363-4.47269 1.08312-6.51352 2.02023-.01767.00761-.03281.02032-.04286.03682-4.148531 6.19777-5.284987 12.24327-4.72748 18.21377.002523.0292.01892.0572.041624.075 2.737086 2.01 5.388416 3.2303 7.990506 4.0391.04165.0127.08577-.0025.11227-.0368.61553-.8406 1.16422-1.7269 1.63466-2.6589.02776-.0546.00126-.1194-.05548-.141-.87031-.3301-1.69902-.7326-2.49618-1.1897-.06305-.0369-.0681-.127-.0101-.1702.16776-.1257.33555-.2565.49573-.3886.02898-.0241.06937-.0292.10344-.0139 5.23699 2.391 10.90669 2.391 16.08189 0 .0341-.0165.0745-.0115.1047.0127.1602.132.328.2641.497.3898.058.0432.0542.1333-.0088.1702-.7972.4659-1.6259.8596-2.4975 1.1885-.0567.0216-.082.0876-.0542.1422.4805.9307 1.0292 1.817 1.6334 2.6576.0252.0356.0706.0508.1123.0381 2.6147-.8088 5.266-2.0291 8.0031-4.0391.024-.0178.0391-.0445.0416-.0737.6672-6.9026-1.1175-12.8985-4.7312-18.21381-.0089-.01776-.024-.03047-.0416-.03808zm-16.396 14.61519c-1.57674 0-2.87589-1.4475-2.87589-3.2252s1.27396-3.2253 2.87589-3.2253c1.6144 0 2.901 1.4603 2.8758 3.2253 0 1.7777-1.274 3.2252-2.8758 3.2252zm10.6329 0c-1.5766 0-2.8758-1.4475-2.8758-3.2252s1.2739-3.2253 2.8758-3.2253c1.6145 0 2.9011 1.4603 2.8759 3.2253 0 1.7777-1.2614 3.2252-2.8759 3.2252z" fill="#5a5a5a"/></svg>

<svg width="32" height="32" viewBox="0 0 32 32" fill="none" xmlns="http://www.w3.org/2000/svg">
<path d="M27.0894 5.54081C25.0498 4.60496 22.8626 3.91548 20.5759 3.52058C20.5342 3.51296 20.4926 3.532 20.4712 3.5701C20.1899 4.07038 19.8783 4.72305 19.6601 5.23604C17.2005 4.86781 14.7536 4.86781 12.3444 5.23604C12.1262 4.71164 11.8033 4.07038 11.5208 3.5701C11.4993 3.53327 11.4577 3.51423 11.4161 3.52058C9.13055 3.91421 6.94341 4.6037 4.90258 5.54081C4.88491 5.54842 4.86977 5.56113 4.85972 5.57763C0.711189 11.7754 -0.425267 17.8209 0.13224 23.7914C0.134763 23.8206 0.15116 23.8486 0.173864 23.8664C2.91095 25.8764 5.56228 27.0967 8.16437 27.9055C8.20602 27.9182 8.25014 27.903 8.27664 27.8687C8.89217 27.0281 9.44086 26.1418 9.9113 25.2098C9.93906 25.1552 9.91256 25.0904 9.85582 25.0688C8.98551 24.7387 8.1568 24.3362 7.35964 23.8791C7.29659 23.8422 7.29154 23.7521 7.34954 23.7089C7.5173 23.5832 7.68509 23.4524 7.84527 23.3203C7.87425 23.2962 7.91464 23.2911 7.94871 23.3064C13.1857 25.6974 18.8554 25.6974 24.0306 23.3064C24.0647 23.2899 24.1051 23.2949 24.1353 23.3191C24.2955 23.4511 24.4633 23.5832 24.6323 23.7089C24.6903 23.7521 24.6865 23.8422 24.6235 23.8791C23.8263 24.345 22.9976 24.7387 22.126 25.0676C22.0693 25.0892 22.044 25.1552 22.0718 25.2098C22.5523 26.1405 23.101 27.0268 23.7052 27.8674C23.7304 27.903 23.7758 27.9182 23.8175 27.9055C26.4322 27.0967 29.0835 25.8764 31.8206 23.8664C31.8446 23.8486 31.8597 23.8219 31.8622 23.7927C32.5294 16.8901 30.7447 10.8942 27.131 5.57889C27.1221 5.56113 27.107 5.54842 27.0894 5.54081ZM10.6934 20.156C9.11666 20.156 7.81751 18.7085 7.81751 16.9308C7.81751 15.1531 9.09147 13.7055 10.6934 13.7055C12.3078 13.7055 13.5944 15.1658 13.5692 16.9308C13.5692 18.7085 12.2952 20.156 10.6934 20.156ZM21.3263 20.156C19.7497 20.156 18.4505 18.7085 18.4505 16.9308C18.4505 15.1531 19.7244 13.7055 21.3263 13.7055C22.9408 13.7055 24.2274 15.1658 24.2022 16.9308C24.2022 18.7085 22.9408 20.156 21.3263 20.156Z" fill="#5A5A5A"/>
</svg>
